images/ic_search.svg

<svg width="18" height="18" viewBox="0 0 18 18" fill="none" xmlns="http://www.w3.org/2000/svg">
<g clip-path="url(#clip0)">
<path d="M10.6171 0C6.54619 0 3.23426 3.31193 3.23426 7.38281C3.23426 9.17381 3.8753 10.8179 4.94 12.0977L0.207515 16.798C-0.0680047 17.0717 -0.0695164 17.5168 0.204105 17.7924C0.341566 17.9307 0.522269 18 0.703007 18C0.882128 18 1.06132 17.9319 1.19846 17.7957L5.93742 13.089C7.21212 14.1363 8.84249 14.7656 10.6171 14.7656C11.8836 14.7656 13.1334 14.4393 14.2313 13.8218C14.5698 13.6315 14.6898 13.2028 14.4994 12.8643C14.3091 12.5259 13.8804 12.4057 13.5419 12.5961C12.6541 13.0955 11.6427 13.3594 10.6171 13.3594C7.32159 13.3594 4.64051 10.6783 4.64051 7.38281C4.64051 4.08734 7.32159 1.40625 10.6171 1.40625C13.9125 1.40625 16.5936 4.08734 16.5936 7.38281C16.5936 8.42101 16.3235 9.44328 15.8126 10.3391C15.6202 10.6765 15.7376 11.1059 16.0749 11.2983C16.4123 11.4906 16.8417 11.3732 17.0341 11.0359C17.6659 9.92813 17.9999 8.66493 17.9999 7.38281C17.9999 3.31193 14.688 0 10.6171 0Z" fill="#C4C4C4"/>
</g>
<defs>
<clipPath id="clip0">
<rect width="18" height="18" fill="white"/>
</clipPath>
</defs>
</svg>

<svg xmlns="http://www.w3.org/2000/svg" fill="none" viewBox="0 0 18 18"><g clip-path="url(#A)"><path d="M10.617 0c-4.07 0-7.383 3.312-7.383 7.383a7.35 7.35 0 0 0 1.706 4.715l-4.732 4.7c-.276.274-.277.72-.003.994A.7.7 0 0 0 .703 18a.7.7 0 0 0 .495-.204l4.74-4.707a7.35 7.35 0 0 0 4.68 1.677c1.267 0 2.516-.326 3.614-.944.338-.2.46-.62.268-.957s-.62-.46-.957-.268c-.888.5-1.9.763-2.925.763-3.295 0-5.977-2.68-5.977-5.977s2.68-5.977 5.977-5.977 5.977 2.68 5.977 5.977c0 1.038-.27 2.06-.78 2.956-.192.337-.075.767.262.96s.767.075.96-.262c.632-1.108.966-2.37.966-3.653C18 3.312 14.688 0 10.617 0z" fill="#c4c4c4"/></g><defs><clipPath id="A"><path fill="#fff" d="M0 0h18v18H0z"/></clipPath></defs></svg>
